rospo-light/16x16/actions/go-next-use.svg

<svg height="16" viewBox="0 0 16 16" width="16" xmlns="http://www.w3.org/2000/svg"><path d="m1 1v6h14v-6zm0 8v6l4-3zm7 1v4h1v-4zm2 0v4h5v-4z" fill="#5c616c"/></svg>

<?xml version="1.0" encoding="UTF-8" standalone="no"?>
<svg xmlns="http://www.w3.org/2000/svg" width="22" height="22" viewBox="0 0 22 22">
 <defs>
  <style type="text/css" id="current-color-scheme">
   .ColorScheme-Text { color:#5c616c; } .ColorScheme-Highlight { color:#5294e2; }
  </style>
 </defs>
 <path style="fill:currentColor;opacity:1" class="ColorScheme-Text" transform="translate(3 3)" d="M 1 1 L 1 7 L 15 7 L 15 1 L 1 1 z M 1 9 L 1 15 L 5 12 L 1 9 z M 8 10 L 8 14 L 9 14 L 9 10 L 8 10 z M 10 10 L 10 14 L 15 14 L 15 10 L 10 10 z"/>
</svg>
